X:1
T:O My Savior, Hear Me
T:O My Savior, Hear Me
T:Hubert Platt Main
T:Frances Jane (Fanny) Crosby, 1875
T:Public Domain Courtesy of the Cyber Hymnal™
C:Hubert Platt Main
Z:Public Domain
Z:Courtesy of the Cyber Hymnal™
%%score ( 1 2 ) ( 3 4 )
L:1/8
Q:1/4=100
M:6/8
K:F
V:1 treble 
V:2 treble 
V:3 bass 
V:4 bass 
V:1
 [FA]2 [FG] [FB]2 [FA] | (A2 G) F3 | [DF]2 [DF] [CF]2 [EG] | [FA]6 | [FA]2 [FG] [FB]2 [FA] | %5
w: 1.~O my Sav- ior,|hear * me,|Draw me close to|Thee;|Thou hast paid my|
w: 2.~O my Sav- ior,|bless * me,|Bless me while I|pray;|Grant Thy peace to|
w: 3.~O my Sav- ior,|love * me,|Make me all Thine|own;|Leave me not to|
w: 4.~O my Sav- ior,|guard * me,|Keep me ev- er-|more!|Bless me, love me,|
 (A2 G) F3 | [FB]2 [DG] [CF]2 [CE] | [CF]6 | [EG]2 [EG] ([EG]F)[EG] | [FA]2 [GB] [Ac]3 | %10
w: ran- * som,|Thou hast died for|me;|Now by sim- * ple|faith I claim|
w: help * me,|Take my fear a-|way;|I be- lieve * Thy|prom- ise, Lord;|
w: wan- * der|In this world a-|lone;|Bless my way * with|light di- vine,|
w: guide * me,|Till my work is|o’er;|May I then, * with|glad sur- prise,|
 [Gc]2 [Gc] ([Gc][F=B])[Ec] | [Fd]2 [F=B] ([Ec]2 [G_B]) | [FA]2 [FG] [FB]2 [FA] | [Fd]3 [Fc]3 | %14
w: Par- don through * Thy|gra- cious name; *|Thou, my ark of|safe- ty,|
w: I will trust * Thy|ho- ly Word; *|Thou, my soul’s Re-|deem- er,|
w: Let Thy glo- * ry|round me shine; *|Thou, my rock, my|ref- uge,|
w: Chant Thy praise * be-|yond the skies; *|There with Thee, my|Sav- ior,|
 F2 F !fermata![FA]2 [CG] | [CF]6 |] %16
w: Let me fly to|Thee.|
w: Bless me while I|pray.|
w: Make me all Thine|own.|
w: Dwell for ev- er-|more.|
V:2
 x6 | E3 F3 | x6 | x6 | x6 | E3 F3 | x6 | x6 | x6 | x6 | x6 | x6 | x6 | x6 | F2 F x3 | x6 |] %16
V:3
 [F,C]2 [F,B,] [F,D]2 [F,C] | (C2 B,) [D,A,]3 | [B,,B,]2 [B,,B,] [C,A,]2 [C,C] | [F,,C]6 | %4
 [F,C]2 [F,B,] [F,D]2 [F,C] | (C2 B,) [D,A,]3 | [B,,D]2 [B,,B,] [C,A,]2 [C,G,] | [F,,A,]6 | %8
 [C,C]2 [C,C] (B,A,)[C,C] | [F,C]2 [F,C] [F,F]3 | [G,E]2 [G,E] (ED)[G,C] | [G,=B,]2 [G,D] [C,C]3 | %12
 [F,C]2 [F,B,] [F,D]2 [F,C] | [A,,B,]3 [F,A,]3 | [A,,C]2 [B,,D] !fermata![C,C]2 [C,B,] | [F,A,]6 |] %16
V:4
 x6 | C,3 x3 | x6 | x6 | x6 | C,3 x3 | x6 | x6 | x3 C,2 x | x6 | x3 G,2 x | x6 | x6 | x6 | x6 | %15
 x6 |] %16

